web/imgs/facebook.svg

<?xml version="1.0" encoding="UTF-8"?>
<svg width="23px" height="42px" viewBox="0 0 23 42" version="1.1" xmlns="http://www.w3.org/2000/svg" xmlns:xlink="http://www.w3.org/1999/xlink">
    <!-- Generator: Sketch 46.2 (44496) - http://www.bohemiancoding.com/sketch -->
    <title>Path</title>
    <desc>Created with Sketch.</desc>
    <defs></defs>
    <g id="Page-1" stroke="none" stroke-width="1" fill="none" fill-rule="evenodd">
        <path d="M14.2991267,41 L14.2991267,20.9976582 L20.2158998,20.9976582 L21,14.1047404 L14.2991267,14.1047404 L14.3091793,10.6547686 C14.3091793,8.85698946 14.4922198,7.89369834 17.2591887,7.89369834 L20.9581143,7.89369834 L20.9581143,1 L15.0405035,1 C7.93250127,1 5.43066868,4.34380673 5.43066868,9.96703806 L5.43066868,14.105521 L1,14.105521 L1,20.9984387 L5.43066868,20.9984387 L5.43066868,41 L14.2991267,41 L14.2991267,41 L14.2991267,41 L14.2991267,41 Z" id="Path" stroke="#1C1919" stroke-width="2"></path>
    </g>
</svg>

<?xml version="1.0" encoding="utf-8"?>
<!-- Generator: Adobe Illustrator 19.2.1, SVG Export Plug-In . SVG Version: 6.00 Build 0)  -->
<svg version="1.1" id="Capa_1" xmlns="http://www.w3.org/2000/svg" xmlns:xlink="http://www.w3.org/1999/xlink" x="0px" y="0px"
	 viewBox="0 0 23 42" style="enable-background:new 0 0 23 42;" xml:space="preserve">
<style type="text/css">
	.st0{fill:none;stroke:#1C1919;stroke-width:2;}
</style>
<title>Path</title>
<desc>Created with Sketch.</desc>
<g id="Page-1">
	<path id="Path" class="st0" d="M14.3,41V21h5.9l0.8-6.9h-6.7l0-3.4c0-1.8,0.2-2.8,3-2.8H21V1H15c-7.1,0-9.6,3.3-9.6,9v4.1H1V21h4.4
		v20H14.3L14.3,41L14.3,41L14.3,41z"/>
</g>
</svg>
